packages/core/src/svgs/tokens/branded/AGRS.svg

<svg width="24" height="24" viewBox="0 0 24 24" fill="none" xmlns="http://www.w3.org/2000/svg">
<path d="M11.8167 8.68335C11.5389 8.68335 11.3 8.77224 11.0944 8.94446C10.88 9.14042 10.7029 9.37387 10.5723 9.63333C10.4223 9.9167 10.2945 10.2278 10.2 10.5778C10.0084 11.2258 9.88729 11.8926 9.83894 12.5667C9.81107 12.8611 9.80005 13.1056 9.80005 13.2889C9.80005 13.8945 9.8834 14.3556 10.05 14.6777C10.2167 14.9888 10.4833 15.15 10.85 15.15C11.1278 15.15 11.3612 15.0666 11.5722 14.9C11.7852 14.7199 11.9624 14.5013 12.0945 14.2555C12.2445 13.9889 12.3723 13.6889 12.4667 13.3501C12.6527 12.6938 12.768 12.0195 12.8111 11.3389C12.8334 11.0167 12.8444 10.7389 12.8444 10.5056C12.8658 10.0478 12.7938 9.59042 12.6334 9.16112C12.489 8.8389 12.2167 8.68335 11.8167 8.68335Z" fill="#FFC845"/>
<path d="M16.0388 8.79997H15.6944C15.5055 8.79997 15.1833 8.91108 15.1166 9.33885C14.8611 11.0889 14.6055 13.1221 14.5722 13.3555C14.5273 13.6103 14.5087 13.8691 14.5166 14.1278C14.5333 14.4166 14.6055 14.6278 14.6667 14.7222C14.7204 14.8143 14.7926 14.8944 14.8785 14.9576C14.9646 15.0206 15.0626 15.0653 15.1667 15.0889L14.8889 17.1444H14.3221C14.1119 17.1228 13.9038 17.0837 13.6999 17.0277C13.4168 16.937 13.157 16.7853 12.9389 16.5832C12.7444 16.3778 12.55 16.161 12.3777 15.6277C12.1707 16.0707 11.8386 16.4435 11.4222 16.6999C11.1072 16.8923 10.7468 16.9978 10.3778 17.0056C10.011 17.0242 9.64496 16.9567 9.30917 16.808C8.97335 16.6595 8.67715 16.434 8.44441 16.15C7.9833 15.5777 7.74997 14.7222 7.74997 13.5722C7.74997 12.4055 7.86108 11.3944 8.06663 10.5444C8.27775 9.69991 8.55553 8.99998 8.89997 8.45553C9.19268 7.96361 9.5983 7.54846 10.0832 7.24441C10.5277 6.9833 10.9722 6.85553 11.4278 6.85553C11.9389 6.85553 12.3611 6.97219 12.6944 7.2222C13.0278 7.46664 13.2833 7.80553 13.4556 8.23886C13.4556 8.23886 13.6389 7.58885 14.4388 7.2222C15.3833 6.78886 16.25 7.28885 16.25 7.28885L16.0388 8.79997ZM11.9999 3.11108C9.6425 3.11108 7.38156 4.04758 5.71458 5.71458C4.04758 7.38156 3.11108 9.64248 3.11108 11.9999C3.11108 14.3575 4.04758 16.6184 5.71458 18.2854C7.38156 19.9523 9.6425 20.8889 11.9999 20.8889C14.3574 20.8889 16.6184 19.9523 18.2854 18.2854C19.9523 16.6184 20.8889 14.3575 20.8889 11.9999C20.8889 9.64248 19.9523 7.38156 18.2854 5.71458C16.6184 4.04758 14.3574 3.11108 11.9999 3.11108Z" fill="#FFC845"/>
<path d="M12 21.4444C6.72223 21.4444 2.55555 17.2778 2.55555 12C2.55555 6.72223 6.72223 2.55557 12 2.55557C17.2777 2.55557 21.4444 6.72223 21.4444 12C21.4444 17.2778 17.2777 21.4444 12 21.4444ZM12 2C10.6868 2 9.38643 2.25866 8.17317 2.76121C6.95992 3.26376 5.85752 4.00035 4.92893 4.92894C4.00035 5.85752 3.26376 6.95992 2.76121 8.17317C2.25866 9.38643 2 10.6868 2 12C2 13.3132 2.25866 14.6136 2.76121 15.8269C3.26376 17.0401 4.00035 18.1425 4.92893 19.0711C5.85752 19.9997 6.95992 20.7362 8.17317 21.2388C9.38643 21.7414 10.6868 22 12 22C14.6522 22 17.1957 20.9465 19.071 19.0711C20.9465 17.1957 22 14.6522 22 12C22 9.34784 20.9465 6.80431 19.071 4.92894C17.1957 3.05358 14.6522 2 12 2Z" fill="#FFC845"/>
</svg>

<svg xmlns="http://www.w3.org/2000/svg" width="24" height="24" fill="none" viewBox="0 0 24 24">
    <path fill="#FFC845" d="M11.817 8.683a1.1 1.1 0 0 0-.723.261 2.4 2.4 0 0 0-.522.69c-.15.283-.277.594-.372.944a9.4 9.4 0 0 0-.361 1.989 8 8 0 0 0-.039.722q0 .908.25 1.389c.167.31.433.472.8.472.278 0 .511-.083.722-.25.213-.18.39-.399.523-.645a4 4 0 0 0 .372-.905c.186-.656.301-1.33.344-2.011q.033-.483.033-.833a3.4 3.4 0 0 0-.21-1.345c-.145-.322-.417-.478-.817-.478"/>
    <path fill="#FFC845" d="M16.039 8.8h-.345c-.189 0-.51.111-.577.539-.256 1.75-.512 3.783-.545 4.016a4 4 0 0 0-.055.773c.016.289.088.5.15.594a.78.78 0 0 0 .5.367l-.278 2.055h-.567a4 4 0 0 1-.622-.116 2 2 0 0 1-.761-.445c-.195-.205-.389-.422-.561-.955-.207.443-.54.816-.956 1.072a2.1 2.1 0 0 1-1.044.306 2.35 2.35 0 0 1-1.934-.856c-.46-.572-.694-1.428-.694-2.578 0-1.166.111-2.178.317-3.028.21-.844.489-1.544.833-2.088a3.6 3.6 0 0 1 1.183-1.212c.445-.26.89-.388 1.345-.388.51 0 .933.116 1.266.366q.502.367.762 1.017s.183-.65.983-1.017c.944-.433 1.811.067 1.811.067zm-4.04-5.689A8.889 8.889 0 1 0 12 20.89a8.889 8.889 0 0 0 0-17.78"/>
    <path fill="#FFC845" d="M12 21.444c-5.278 0-9.444-4.166-9.444-9.444S6.722 2.556 12 2.556 21.444 6.722 21.444 12 17.278 21.444 12 21.444M12 2a10 10 0 1 0 0 20 10 10 0 0 0 0-20"/>
</svg>
